symbols/web/delete_sweep/materialsymbolsrounded/delete_sweep_wght300_24px.svg

<svg xmlns="http://www.w3.org/2000/svg" height="24" width="24"><path d="M15.7 17.75q-.325 0-.537-.212-.213-.213-.213-.538 0-.325.213-.538.212-.212.537-.212h2q.3 0 .525.212.225.213.225.538 0 .325-.225.538-.225.212-.525.212Zm0-8q-.325 0-.537-.213-.213-.212-.213-.537 0-.325.213-.538.212-.212.537-.212h5q.3 0 .525.212.225.213.225.538 0 .325-.225.537-.225.213-.525.213Zm0 4q-.325 0-.537-.213-.213-.212-.213-.537 0-.325.213-.538.212-.212.537-.212h4q.3 0 .525.212.225.213.225.538 0 .325-.225.537-.225.213-.525.213ZM5.375 18.5q-.775 0-1.3-.525T3.55 16.7V8H3.3q-.3 0-.525-.213-.225-.212-.225-.537 0-.325.225-.537Q3 6.5 3.3 6.5h3.125v-.45q0-.3.213-.525.212-.225.537-.225H8.95q.3 0 .525.225.225.225.225.525v.45h3.1q.325 0 .538.213.212.212.212.537 0 .325-.212.537Q13.125 8 12.8 8h-.25v8.7q0 .75-.525 1.275-.525.525-1.275.525ZM5.05 8v8.7q0 .1.1.2t.225.1h5.375q.125 0 .213-.1.087-.1.087-.2V8Zm0 0V17 16.7Z"/></svg>

<svg xmlns="http://www.w3.org/2000/svg" height="24" width="24"><path d="M15.7 17.75Q15.375 17.75 15.163 17.538Q14.95 17.325 14.95 17Q14.95 16.675 15.163 16.462Q15.375 16.25 15.7 16.25H17.7Q18 16.25 18.225 16.462Q18.45 16.675 18.45 17Q18.45 17.325 18.225 17.538Q18 17.75 17.7 17.75ZM15.7 9.75Q15.375 9.75 15.163 9.537Q14.95 9.325 14.95 9Q14.95 8.675 15.163 8.462Q15.375 8.25 15.7 8.25H20.7Q21 8.25 21.225 8.462Q21.45 8.675 21.45 9Q21.45 9.325 21.225 9.537Q21 9.75 20.7 9.75ZM15.7 13.75Q15.375 13.75 15.163 13.537Q14.95 13.325 14.95 13Q14.95 12.675 15.163 12.462Q15.375 12.25 15.7 12.25H19.7Q20 12.25 20.225 12.462Q20.45 12.675 20.45 13Q20.45 13.325 20.225 13.537Q20 13.75 19.7 13.75ZM5.375 18.5Q4.6 18.5 4.075 17.975Q3.55 17.45 3.55 16.7V8H3.3Q3 8 2.775 7.787Q2.55 7.575 2.55 7.25Q2.55 6.925 2.775 6.713Q3 6.5 3.3 6.5H6.425V6.05Q6.425 5.75 6.638 5.525Q6.85 5.3 7.175 5.3H8.95Q9.25 5.3 9.475 5.525Q9.7 5.75 9.7 6.05V6.5H12.8Q13.125 6.5 13.338 6.713Q13.55 6.925 13.55 7.25Q13.55 7.575 13.338 7.787Q13.125 8 12.8 8H12.55V16.7Q12.55 17.45 12.025 17.975Q11.5 18.5 10.75 18.5ZM5.05 8V16.7Q5.05 16.8 5.15 16.9Q5.25 17 5.375 17H10.75Q10.875 17 10.963 16.9Q11.05 16.8 11.05 16.7V8ZM5.05 8V16.7Q5.05 16.8 5.05 16.9Q5.05 17 5.05 17Q5.05 17 5.05 16.9Q5.05 16.8 5.05 16.7Z"/></svg>
